X: 20063
T: The WOODCOCKSTANK BRIG
C: Copyright.
Q: "With spirit."
%R: reel, hornpipe
B: W. Hamilton "Universal Tune-Book" Vol. 2 Glasgow 1846 p.6 #3 (and p.7 #1)
S: http://s3-eu-west-1.amazonaws.com/itma.dl.printmaterial/book_pdfs/hamiltonvol2web.pdf
Z: 2016 John Chambers <jc:trillian.mit.edu>
M: C
L: 1/8
K: Bb
%%stretchstaff 0
% - - - - - - - - - - - - - - - - - - - - - - - - -
F |\
BFGE FDEC | BdcB ABcd | edce dBAc | BGcB Accd |\
BFGE FDEC | BGed dc-ce | dBAc BGEG | FBAc dBB :|
|: f |\
b/a/g/f/ ec dBAc | fBAB cdec | b/a/g/f/ =eb afef | _edcB Accd |\
eg f/e/d/c/ df e/d/c/B/ | AcBd ec-ce | dBAc BGEG | FBAc dBB :|
% - - - - - - - - - - - - - - - - - - - - - - - - -

% (Continued from previous page)

%%sep 1 1 500
%%sep 1 1 500

